X:227
T:score300
L:1/16
Q:1/4=120
M:2/4
I:linebreak $
K:G
 D2>D2 G2 zG | (AG)(FE) D4 | (B,D)(GA) B2d2 | A6 z2 | D2>D2 G2 zG | (AG)(EF) D4 | A2>A2 A2B2 | %7
 G6 z2 |] %8
